X:1
T:Ah Robin, gentle Robin
T:Ah Robin, gentle Robin
T:William Cornysh (1465?-1523)
C:William Cornysh
%%score [ 1 2 3 ]
L:1/8
M:4/2
K:F
V:1 treble nm="Sopran"
V:2 treble nm="Sopran"
V:3 treble nm="Alt"
V:1
 z16 | z16 | z16 | z16 | z16 | z16 | z16 | z16 | A4 d4 c4 z4 | A4 A2 d2 c4 z4 | %10
w: ||||||||Ah, Ro- bin,|gen- tle Ro- bin,|
 C3 C F2 F2 E2 E2 A2 A2 | c2 =B2 A2 G2 ^F4 z2 D2 | A3 A G2 =F2 c3 =B A2 G2 | %13
w: Tell me how thy le- man doth and|thou shalt know of mine. My|la- dy is un- kind I wis, A-|
 =B2 A2 A2 G2 A4 z2 A2 | C3 C F2 F2 E2 E E A2 A2 | c2 =B2 A2 G2 ^F4 z4 | A4 d4 c4 z4 | %17
w: lack why is she so? She|lov'th a- no- ther bet- ter than me, and|yet she will say no.|Ah, Ro- bin,|
 A4 A2 d2 c4 z4 | C3 C F2 F2 E2 E2 A2 A2 | c2 =B2 A2 G2 ^F4 z2 D2 | A3 A G2 =F2 A3 A D2 D2 | %21
w: gen- tle Ro- bin,|Tell me how thy le- man doth and|thou shalt know of mine. I|can- not think such dou- ble- ness for|
 A3 A A2 G2 A4 z2 D2 | A3 A F2 F2 E3 E A2 A2 | c2 =B2 A2 G2 ^F4 z4 | A4 d4 c4 z4 | A4 A2 d2 c4 z4 | %26
w: I find wo- men true, In|faith my la- dy lov'th me well she|will change for no new.|Ah, Ro- bin,|gen- tle Ro- bin,|
 C3 C F2 F2 E2 E2 A2 A2 | c2 =B2 A2 G2 ^F8 |] %28
w: Tell me how thy le- man doth and|thou shalt know of mine.|
V:2
 F4 D4 E4 z4 | F4 E2 D2 E4 z4 | E3 E A2 A2 G3 G F2 F2 | G2 G2 E2 E2 D4 z4 | D4 B,4 A,4 z4 | %5
w: Ah, Ro- bin,|gen- tle Ro- bin,|Tell me how thy le- man doth and|thou shalt know of mine.|Ah, Ro- bin,|
 D4 C2 B,2 A,4 z4 | A,2 A,2 A,2 A,2 C2 C2 D2 D2 | E2 E2 A,2 A,2 D4 z4 | F4 D4 E4 z4 | %9
w: gen- tle Ro- bin,|Tell me how thy le- man doth and|thou shalt know of mine.|Ah, Ro- bin,|
 F4 E2 D2 E4 z4 | E3 E A2 A2 G3 G F2 F2 | G2 G2 E2 E2 D4 z4 | D4 B,4 A,4 z4 | D4 C2 B,2 A,4 z4 | %14
w: gen- tle Ro- bin,|Tell me how thy le- man doth and|thou shalt know of mine.|Ah, Ro- bin,|gen- tle Ro- bin,|
 A,2 A,2 A,2 A,2 C2 C2 D2 D2 | E2 E2 A,2 A,2 D4 z4 | F4 D4 E4 z4 | F4 E2 D2 E4 z4 | %18
w: Tell me how thy le- man doth and|thou shalt know of mine.|Ah, Ro- bin,|gen- tle Ro- bin,|
 E3 E A2 A2 G3 G F2 F2 | G2 G2 E2 E2 D4 z4 | D4 B,4 A,4 z4 | D4 C2 B,2 A,4 z4 | %22
w: Tell me how thy le- man doth and|thou shalt know of mine.|Ah, Ro- bin,|gen- tle Ro- bin,|
 A,2 A,2 A,2 A,2 C2 C2 D2 D2 | E2 E2 A,2 A,2 D4 z4 | F4 D4 E4 z4 | F4 E2 D2 E4 z4 | %26
w: Tell me how thy le- man doth and|thou shalt know of mine.|Ah, Ro- bin,|gen- tle Ro- bin,|
 E3 E A2 A2 G3 G F2 F2 | G2 G2 E2 E2 D8 |] %28
w: Tell me how thy le- man doth and|thou shalt know of mine.|
V:3
 z16 | z16 | z16 | z16 | F4 D4 E4 z4 | F4 E2 D2 E4 z4 | E3 E A2 A2 G3 G F2 F2 | G2 G2 E2 E2 D4 z4 | %8
w: ||||Ah, Ro- bin,|gen- tle Ro- bin,|Tell me how thy le- man doth and|thou shalt know of mine.|
 D4 B,4 A,4 z4 | D4 C2 B,2 A,4 z4 | A,2 A,2 A,2 A,2 C2 C2 D2 D2 | E2 E2 A,2 A,2 D4 z4 | %12
w: Ah, Ro- bin,|gen- tle Ro- bin,|Tell me how thy le- man doth and|thou shalt know of mine.|
 F4 D4 E4 z4 | F4 E2 D2 E4 z4 | E3 E A2 A2 G3 G F2 F2 | G2 G2 E2 E2 D4 z4 | D4 B,4 A,4 z4 | %17
w: Ah, Ro- bin,|gen- tle Ro- bin,|Tell me how thy le- man doth and|thou shalt know of mine.|Ah, Ro- bin,|
 D4 C2 B,2 A,4 z4 | A,2 A,2 A,2 A,2 C2 C2 D2 D2 | E2 E2 A,2 A,2 D4 z4 | F4 D4 E4 z4 | %21
w: gen- tle Ro- bin,|Tell me how thy le- man doth and|thou shalt know of mine.|Ah, Ro- bin,|
 F4 E2 D2 E4 z4 | E3 E A2 A2 G3 G F2 F2 | G2 G2 E2 E2 D4 z4 | D4 B,4 A,4 z4 | D4 C2 B,2 A,4 z4 | %26
w: gen- tle Ro- bin,|Tell me how thy le- man doth and|thou shalt know of mine.|Ah, Ro- bin,|gen- tle Ro- bin,|
 A,2 A,2 A,2 A,2 C2 C2 D2 D2 | E2 E2 A,2 A,2 D8 |] %28
w: Tell me how thy le- man doth and|thou shalt know of mine.|

